X:41
T:The Journey By Train
R:Reel
C:Joe Liddy (~1980)
O:Irlande
D:Shantalla "Seven Evenings, Seven Mornings", WBM 21030, 2002
B:"The Leitrim Fiddler", Dublin 1981
M:2/2
L:1/8
Q:1/2=110
F:http://www.thesession.org/tunes/display/9839
K:Edorian
|:"Em"E2BE DE (3FED | E2BE ADFD| "Em"E2BE DEFA| "D"ABdf efdA|
"Em"BEFE DE(3FED| E2FE DB,A,B,|"D"DEFA B2Ad|1 BBAF  EDB,D :|2 B/c/dAF E2Bd||
"Em"e2be Befe | befe dBAB | "D"d2(3fed adfd | BdAB de(3fed|
"C"e2be Bege |fd(3edc defa |"B"bfaf gfed |BdAF EBdf | 
"Em"e2be Befe | befe dBAB | "D"d2(3fed adfd | adfd ABdf|
"C"e2be dfed |BdAB defa | "B"bfab faed  | BdAF E4||

composer: Joe Liddy
